X: 6
T:Dans les prisons de Nantes
T:Autre version
Z:Transcrit et/ou corrigé par Michel BELLON - 2006-04-28
Z:Pour toute observation mailto:galouvielle@free.fr
M:3/4
K:Bb
"Gm"G2 DG GA | GF/2A/2 "Dm"AADA | A>B cd c/2B/2A/2B/2 | "Gm"G2 DG GA |
G2 FB AG | "F"F2G2 "Dm"D>G | "Gm" GA BA G2- | G2 z4 |]

%%footer $D   Galouvielle-MBe 2006 \n-- (--)
